X:1
T:Rickett’s Hornpipe
L:1/8
M:4/4
I:linebreak $
K:D
V:1 treble nm="Voice" snm="Voice"
V:1
 (3ABc |"D" dcdA FAdf |"Em" edcB A2 g2 | fgaf gfed | edcB Agfe |$ dcdA FAdf |"Em" edcB A2 g2 | %7
 fafd egec | d2 f2 d2 ::$ fg | afaf d2 g2 | bgbg e2 fg | afba gfed |"Em" edcB Agfe |$ dcdA FAdf | %15
"Em" edcB A2 g2 | fafd egec | d2 f2 d2 :| %18
